build/svg/cmd/32/shadowed.svg

<?xml version="1.0" encoding="UTF-8" standalone="no"?>
<svg
   xmlns:dc="http://purl.org/dc/elements/1.1/"
   xmlns:cc="http://creativecommons.org/ns#"
   xmlns:rdf="http://www.w3.org/1999/02/22-rdf-syntax-ns#"
   xmlns:svg="http://www.w3.org/2000/svg"
   xmlns="http://www.w3.org/2000/svg"
   xmlns:sodipodi="http://sodipodi.sourceforge.net/DTD/sodipodi-0.dtd"
   xmlns:inkscape="http://www.inkscape.org/namespaces/inkscape"
   viewBox="0 0 32 32"
   version="1.1"
   id="svg6"
   sodipodi:docname="shadowed.svg"
   inkscape:version="0.92.5 (2060ec1f9f, 2020-04-08)"
   inkscape:export-filename="/home/jupiter007/Libreoffice yaru theme fullcolor/build/cmd/32/shadowed.png"
   inkscape:export-xdpi="95"
   inkscape:export-ydpi="95">
  <metadata
     id="metadata12">
    <rdf:RDF>
      <cc:Work
         rdf:about="">
        <dc:format>image/svg+xml</dc:format>
        <dc:type
           rdf:resource="http://purl.org/dc/dcmitype/StillImage" />
      </cc:Work>
    </rdf:RDF>
  </metadata>
  <defs
     id="defs10" />
  <sodipodi:namedview
     pagecolor="#ffffff"
     bordercolor="#666666"
     borderopacity="1"
     objecttolerance="10"
     gridtolerance="10"
     guidetolerance="10"
     inkscape:pageopacity="0"
     inkscape:pageshadow="2"
     inkscape:window-width="1920"
     inkscape:window-height="1011"
     id="namedview8"
     showgrid="true"
     inkscape:zoom="14.75"
     inkscape:cx="22.582141"
     inkscape:cy="13.035366"
     inkscape:window-x="0"
     inkscape:window-y="32"
     inkscape:window-maximized="1"
     inkscape:current-layer="svg6">
    <inkscape:grid
       type="xygrid"
       id="grid830" />
  </sodipodi:namedview>
  <path
     id="path832"
     d="M 17,9 8,29 h 3 l 2.908203,-6.000001 H 24.091795 L 26.999998,29 h 3 l -9,-20 h -2 z m 1.999998,2.402344 3.849609,8.597655 h -3.849609 -3.849607 z"
     style="fill:#6d6d6d;fill-opacity:1;stroke:#6d6d6d;stroke-opacity:1;stroke-width:2;stroke-miterlimit:4;stroke-dasharray:none;stroke-linejoin:round"
     inkscape:connector-curvature="0" />
  <path
     inkscape:connector-curvature="0"
     id="path833-3"
     d="M 14.000001,6.0000004 5.0000009,26 H 8.0000013 L 10.908204,19.999999 H 21.091796 L 23.999999,26 h 3 l -9,-19.9999996 h -2 z m 1.999998,2.402344 3.849609,8.5976546 h -3.849609 -3.849607 z"
     style="opacity:0.6;fill:#000000;fill-opacity:1;stroke:#000000;stroke-width:2;stroke-linejoin:round;stroke-miterlimit:4;stroke-dasharray:none" />
  <path
     inkscape:connector-curvature="0"
     style="fill:#ffffff;fill-opacity:1"
     d="M 14.000001,6.0000004 5.0000009,26 H 8.0000013 L 10.908204,19.999999 H 21.091796 L 23.999999,26 h 3 l -9,-19.9999996 h -2 z m 1.999998,2.402344 3.849609,8.5976546 h -3.849609 -3.849607 z"
     id="path2-3-6" />
</svg>

<svg xmlns="http://www.w3.org/2000/svg" viewBox="0 0 32 32"><path d="M17 9L8 29h3l2.908-6h10.184L27 29h3L21 9h-2zm2 2.402L22.85 20h-7.7z" fill="#6d6d6d" stroke="#6d6d6d" stroke-width="2" stroke-linejoin="round"/><path d="M14 6L5 26h3l2.908-6h10.184L24 26h3L18 6h-2zm2 2.402L19.85 17h-7.7z" opacity=".6" stroke="#000" stroke-width="2" stroke-linejoin="round"/><path d="M14 6L5 26h3l2.908-6h10.184L24 26h3L18 6h-2zm2 2.402L19.85 17h-7.7z" fill="#fff"/></svg>
